X:1
T:Hornpipes Master
M:2/4
L:1/8
S:Isaac Homan manuscript (mid-19th century, Bellport,
S:Long Island, NY, Book 4, p. 59)
Z:AK/Fiddler’s Companion
K:C
g/f/|e/(c/B/c/) G/(c/B/c/)|c/e/a/g/ f/e/d/c/|B/d/g/f/ ((5e/4f/4g/4a/4b/4)c'/g/|a/f/d/B/ c/a/g/f/|
e/(c/B/c/) G/(c/B/c/)|c/e/a/g/ f/e/d/c/|B/a/g/f/ e/d/c/B/|dcc||
(G/F/)|E/G/c/B/ A/G/F/E/|F/A/d/c/ B/A/G/F/|E/G/c/B/ A/G/F/E/|D/G,/B,/D/ G/F/E/D/|
C/E/G/B/ c/G/F/E/|F/A/d/c/ B/A/G/F/|E/G/c/e/ g/f/e/B/|cG,c||
K:Amin
E|{B}A/^G/A/B/ c/B/A/G/|A/a/^g/a/ e/f/e/d/|c/e/d/c/ B/d/c/B/|A/c/B/A/ ^G/A/E|
{B}A/^G/A/B/ c/B/A/G/|A/a/^g/a/ e/f/e/d/|c/e/d/c/ B/d/c/B/|A/c/B/A/ A||

